X:301
T: Mao zhuxi qinshou zaipei ta
N: C0810
O: China,Hunan, Dongan
S: I, 489, 2)]
R: Shange. Xin minge]
M: 2/4
L: 1/16
K: Bb
f2f2fc(3fcf | g8 | b2gbgff2 | f2f2cdcB | G8 |
cc3d2df | gfdc-c4 | f2dc-c4 | c6z2 |
f2(3dgfc2cd | fdfg-g4 | b2gbgff2 | df3cdcB | G8 |
c2ccd2df | gfdc-c4 | f2dc-c4 | c6z2

@@@ Tune index: 6302
